; generated by PrusaSlicer 2.8.1+MacOS-arm64 on 2025-09-11 at 11:02:57 UTC


;
;
; 

; external perimeters extrusion width = 0.45mm
; perimeters extrusion width = 0.45mm
; infill extrusion width = 0.45mm
; solid infill extrusion width = 0.45mm
; top infill extrusion width = 0.40mm
; support material extrusion width = 0.35mm
; first layer extrusion width = 0.42mm

; external perimeters extrusion width = 0.45mm
; perimeters extrusion width = 0.45mm
; infill extrusion width = 0.45mm
; solid infill extrusion width = 0.45mm
; top infill extrusion width = 0.40mm
; support material extrusion width = 0.35mm
; first layer extrusion width = 0.42mm

; external perimeters extrusion width = 0.45mm
; perimeters extrusion width = 0.45mm
; infill extrusion width = 0.45mm
; solid infill extrusion width = 0.45mm
; top infill extrusion width = 0.40mm
; support material extrusion width = 0.35mm
; first layer extrusion width = 0.42mm

; external perimeters extrusion width = 0.45mm
; perimeters extrusion width = 0.45mm
; infill extrusion width = 0.45mm
; solid infill extrusion width = 0.45mm
; top infill extrusion width = 0.40mm
; support material extrusion width = 0.35mm
; first layer extrusion width = 0.42mm

; external perimeters extrusion width = 0.45mm
; perimeters extrusion width = 0.45mm
; infill extrusion width = 0.45mm
; solid infill extrusion width = 0.45mm
; top infill extrusion width = 0.40mm
; support material extrusion width = 0.35mm
; first layer extrusion width = 0.42mm

; external perimeters extrusion width = 0.45mm
; perimeters extrusion width = 0.45mm
; infill extrusion width = 0.45mm
; solid infill extrusion width = 0.45mm
; top infill extrusion width = 0.40mm
; support material extrusion width = 0.35mm
; first layer extrusion width = 0.42mm

M73 P0 R58
M73 Q0 S58
M201 X1000 Y1000 Z200 E5000 ; sets maximum accelerations, mm/sec^2
M203 X200 Y200 Z12 E120 ; sets maximum feedrates, mm / sec
M204 S1250 T1250 ; sets acceleration (S) and retract acceleration (R), mm/sec^2
M205 X8.00 Y8.00 Z0.40 E4.50 ; sets the jerk limits, mm/sec
M205 S0 T0 ; sets the minimum extruding and travel feed rate, mm/sec

; printing object zfish-mold-stamp-D13 id:0 copy 0
; stop printing object zfish-mold-stamp-D13 id:0 copy 0
; printing object zfish-mold-stem-D20 id:3 copy 0
; stop printing object zfish-mold-stem-D20 id:3 copy 0
; printing object zfish-mold-stamp-D20 id:1 copy 0
; stop printing object zfish-mold-stamp-D20 id:1 copy 0
; printing object zfish-mold-stem-D13 id:2 copy 0
; stop printing object zfish-mold-stem-D13 id:2 copy 0
; printing object zfish-mold-stemlock-D20 id:5 copy 0
; stop printing object zfish-mold-stemlock-D20 id:5 copy 0
; printing object zfish-mold-stemlock-D13 id:4 copy 0
; stop printing object zfish-mold-stemlock-D13 id:4 copy 0

;TYPE:Custom
M862.3 P "MK3S" ; printer model check
M862.1 P0.4 ; nozzle diameter check
M115 U3.14.0 ; tell printer latest fw version
G90 ; use absolute coordinates
M83 ; extruder relative mode
M104 S215 ; set extruder temp
M140 S60 ; set bed temp
M190 S60 ; wait for bed temp
M109 S215 ; wait for extruder temp
G28 W ; home all without mesh bed level
G80 X92.9965 Y70.7935 W64.0069 H68.4134 ; mesh bed levelling

G1 Z0.2 F720
G1 Y-3 F1000 ; go outside print area
G92 E0
G1 X60 E9 F1000 ; intro line
G1 X100 E12.5 F1000 ; intro line

G92 E0
M221 S95

; Don't change E values below. Excessive value can damage the printer.

G21 ; set units to millimeters
G90 ; use absolute coordinates
M83 ; use relative distances for extrusion

M900 K0.05 ; Filament gcode LA 1.5
M900 K30 ; Filament gcode LA 1.0




M107
;LAYER_CHANGE
;Z:0.2
;HEIGHT:0.2
G1 E-.8 F2100
G1 Z.6 F720
G1 X99.828 Y78.134 F10800
G1 Z.2 F720
G1 E.8 F2100
M204 S800
;TYPE:Skirt/Brim
;WIDTH:0.42
G1 F1200
G1 X101.243 Y76.405 E.07005
G1 X102.489 Y75.2 E.05435
G1 X104.305 Y73.816 E.07159
G1 X106.245 Y72.708 E.07005
G1 X108.406 Y71.833 E.0731
G1 X109.824 Y71.434 E.04619
G1 X111.16 Y71.176 E.04266
G1 X113.448 Y70.984 E.07199
G1 X139.648 Y70.982 E.82148
G1 X141.117 Y71.038 E.04609
G1 X142.467 Y71.203 E.04264
G1 X144.846 Y71.766 E.07665
M73 P0 R57
G1 X147.018 Y72.614 E.07311
G1 X148.224 Y73.243 E.04265
G1 X149.47 Y74.03 E.04621
G1 X151.29 Y75.486 E.07308
G1 X152.967 Y77.265 E.07666
G1 X153.785 Y78.352 E.04265
G1 X154.57 Y79.6 E.04623
G1 X155.585 Y81.698 E.07308
G1 X156.135 Y83.291 E.05284
G1 X156.593 Y85.311 E.06494
G1 X156.775 Y86.872 E.04928
G1 X156.812 Y88.508 E.05131
G1 X155.285 Y107.128 E.58578
G1 X154.972 Y109.066 E.06155
G1 X154.671 Y110.074 E.03298
G1 X154.223 Y111.174 E.03724
G1 X152.767 Y113.898 E.09684
G1 X137.408 Y133.834 E.78907
G1 X135.983 Y135.382 E.06597
G1 X134.719 Y136.423 E.05134
G1 X133.409 Y137.265 E.04883
G1 X131.615 Y138.111 E.06219
G1 X130.132 Y138.588 E.04884
G1 X128.525 Y138.902 E.05134
G1 X126.972 Y139.018 E.04883
G1 X124.991 Y138.909 E.06221
G1 X123.46 Y138.622 E.04884
G1 X122.029 Y138.183 E.04693
G1 X120.53 Y137.525 E.05133
G1 X119.237 Y136.77 E.04695
G1 X117.989 Y135.838 E.04884
G1 X96.481 Y116.952 E.89745
G1 X96.017 Y116.378 E.02314
G1 X94.544 Y113.691 E.09608
G1 X93.915 Y112.131 E.05274
G1 X93.419 Y110.221 E.06187
G1 X93.216 Y108.608 E.05097
G1 X93.227 Y106.54 E.06484
G1 X93.394 Y105.22 E.04172
G1 X97.088 Y84.191 E.66945
G1 X97.736 Y82.053 E.07005
G1 X98.628 Y80.075 E.06803
G1 X99.796 Y78.185 E.06966
M204 S1000
;WIPE_START
G1 F8640
G1 X99.828 Y78.134 E-.0139
G1 X101.243 Y76.405 E-.51588
G1 X102.084 Y75.591 E-.27022
;WIPE_END
G1 Z.6 F720
G1 X101.794 Y79.682 F10800
G1 Z.2 F720
G1 E.8 F2100
M204 S800
G1 F1200
G1 X102.633 Y78.563 E.04385
G1 X103.479 Y77.656 E.03889
G1 X104.475 Y76.762 E.04196
G1 X105.558 Y75.956 E.04233
G1 X106.747 Y75.233 E.04363
G1 X108.469 Y74.437 E.05948
G1 X109.66 Y74.035 E.03941
G1 X110.872 Y73.739 E.03912
G1 X112.194 Y73.538 E.04193
G1 X113.453 Y73.46 E.03955
G1 X114.719 Y73.491 E.03971
G1 X116.736 Y73.769 E.06384
G1 X118.021 Y74.101 E.04161
G1 X119.254 Y74.541 E.04105
G1 X120.443 Y75.09 E.04106
G1 X122.093 Y76.086 E.06043
G1 X123.106 Y76.861 E.03999
G1 X124.056 Y77.729 E.04035
G1 X124.947 Y78.703 E.04139
G1 X125.783 Y79.807 E.04342
G1 X126.719 Y81.394 E.05777
G1 X127.945 Y79.429 E.07262
G1 X129.502 Y77.632 E.07455
G1 X130.488 Y76.75 E.04148
G1 X131.575 Y75.943 E.04245
G1 X132.775 Y75.218 E.04396
G1 X134.469 Y74.436 E.0585
G1 X135.64 Y74.04 E.03876
G1 X136.905 Y73.732 E.04082
G1 X138.229 Y73.534 E.04197
G1 X139.507 Y73.459 E.04014
G1 X140.775 Y73.495 E.03977
G1 X142.701 Y73.762 E.06097
G1 X143.952 Y74.08 E.04047
G1 X145.203 Y74.521 E.04159
G1 X147.156 Y75.486 E.0683
G1 X149.117 Y76.872 E.07529
G1 X150.054 Y77.729 E.03981
G1 X150.911 Y78.663 E.03974
G1 X151.802 Y79.837 E.04621
G1 X152.48 Y80.931 E.04035
G1 X152.993 Y81.939 E.03546
G1 X153.699 Y83.783 E.06191
G1 X154.185 Y85.939 E.0693
G1 X154.34 Y88.301 E.07422
G1 X154.258 Y89.638 E.042
G1 X154.051 Y90.972 E.04233
G1 X153.72 Y92.287 E.04252
G1 X153.05 Y94.079 E.05999
G1 X152.492 Y95.187 E.0389
G1 X151.806 Y96.297 E.04091
G1 X150.998 Y97.374 E.04222
G1 X150.082 Y98.383 E.04273
G1 X148.699 Y99.591 E.05758
G1 X150.04 Y100.173 E.04584
G1 X150.843 Y100.777 E.0315
G1 X151.53 Y101.564 E.03275
G1 X152.161 Y102.802 E.04357
G1 X152.545 Y103.949 E.03793
G1 X152.771 Y105.124 E.03752
G1 X152.842 Y106.294 E.03675
G1 X152.765 Y107.442 E.03608
G1 X152.537 Y108.596 E.03688
G1 X152.123 Y109.806 E.0401
G1 X151.548 Y110.926 E.03947
G1 X150.846 Y111.736 E.03361
G1 X150.017 Y112.357 E.03248
G1 X148.965 Y112.803 E.03583
G1 X147.781 Y113.013 E.0377
G1 X146.592 Y112.916 E.0374
G1 X146.046 Y112.751 E.01788
G1 X144.859 Y113.078 E.0386
G1 X143.896 Y113.17 E.03033
G1 X142.521 Y113.065 E.04324
G1 X141.37 Y112.76 E.03733
G1 X140.907 Y112.907 E.01523
G1 X139.519 Y113.003 E.04362
G1 X138.314 Y112.75 E.03861
G1 X137.345 Y112.294 E.03358
G1 X136.539 Y111.679 E.03179
G1 X135.936 Y112.657 E.03602
G1 X135.261 Y113.556 E.03525
G1 X134.493 Y114.386 E.03546
G1 X133.875 Y114.944 E.02611
G1 X132.476 Y115.93 E.05366
G1 X133.891 Y116.936 E.05444
G1 X134.747 Y117.738 E.03678
G1 X135.513 Y118.626 E.03677
G1 X136.584 Y120.299 E.06228
G1 X137.062 Y121.344 E.03603
G1 X137.429 Y122.432 E.036
G1 X137.691 Y123.61 E.03784
G1 X137.822 Y124.769 E.03657
G1 X137.831 Y125.891 E.03518
G1 X137.545 Y127.983 E.0662
G1 X137.224 Y129.085 E.03599
G1 X136.803 Y130.121 E.03506
G1 X135.817 Y131.827 E.06178
G1 X135.114 Y132.724 E.03573
G1 X134.323 Y133.545 E.03575
G1 X133.429 Y134.298 E.03665
G1 X132.453 Y134.956 E.03691
G1 X131.61 Y135.415 E.0301
G1 X130.738 Y135.797 E.02985
G1 X129.538 Y136.184 E.03953
G1 X128.383 Y136.422 E.03698
G1 X126.403 Y136.541 E.06219
G1 X125.315 Y136.455 E.03422
G1 X124.099 Y136.23 E.03877
G1 X122.223 Y135.591 E.06214
G1 X121.192 Y135.068 E.03625
G1 X119.529 Y133.898 E.06375
G1 X118.724 Y133.142 E.03463
G1 X117.968 Y132.271 E.03616
G1 X116.872 Y130.565 E.06358
G1 X116.386 Y129.501 E.03668
G1 X116.017 Y128.395 E.03656
G1 X115.769 Y127.275 E.03597
G1 X115.637 Y126.136 E.03595
G1 X115.624 Y125.01 E.03531
G1 X115.704 Y124.036 E.03064
G1 X115.907 Y122.901 E.03615
G1 X116.24 Y121.757 E.03736
G1 X117.053 Y119.967 E.06164
G1 X117.665 Y119 E.03588
G1 X118.363 Y118.116 E.03532
G1 X119.174 Y117.282 E.03647
G1 X120.008 Y116.582 E.03414
G1 X120.941 Y115.934 E.03562
G1 X119.821 Y115.138 E.04308
G1 X118.942 Y114.361 E.03678
G1 X118.146 Y113.492 E.03695
G1 X117.655 Y112.826 E.02594
G1 X117.187 Y113.689 E.03078
G1 X116.267 Y114.688 E.04258
G1 X115.163 Y115.37 E.04069
G1 X113.974 Y115.716 E.03883
G1 X112.808 Y115.765 E.03659
G1 X111.633 Y115.516 E.03766
G1 X110.431 Y114.878 E.04267
G1 X109.898 Y115.114 E.01828
G1 X108.796 Y115.415 E.03582
G1 X107.486 Y115.56 E.04132
G1 X106.414 Y115.516 E.03364
G1 X105.338 Y115.323 E.03428
G1 X104.103 Y114.905 E.04088
G1 X103.076 Y115.454 E.03651
G1 X101.527 Y115.779 E.04963
G1 X100.323 Y115.67 E.0379
G1 X99.122 Y115.25 E.03989
G1 X98.294 Y114.7 E.03117
G1 X97.568 Y113.978 E.0321
G1 X96.974 Y113.018 E.0354
G1 X96.522 Y112.045 E.03364
G1 X95.99 Y110.407 E.054
G1 X95.75 Y109.112 E.0413
G1 X95.662 Y107.335 E.05578
G1 X95.748 Y106.206 E.0355
G1 X96.151 Y104.303 E.06099
G1 X96.793 Y102.644 E.05578
G1 X97.34 Y101.636 E.03596
G1 X98.168 Y100.7 E.03918
G1 X99.293 Y99.969 E.04207
G1 X100.653 Y99.565 E.04448
G1 X102.342 Y99.623 E.05299
G1 X103.368 Y99.971 E.03397
G1 X104.13 Y100.401 E.02743
G1 X105.294 Y99.985 E.03876
G1 X104.559 Y99.446 E.02858
G1 X103.553 Y98.557 E.04209
G1 X102.183 Y97.025 E.06444
G1 X100.866 Y95.002 E.07569
G1 X100.291 Y93.808 E.04155
G1 X99.832 Y92.583 E.04102
G1 X99.326 Y90.525 E.06645
G1 X99.118 Y88.145 E.07491
G1 X99.171 Y86.824 E.04145
G1 X99.345 Y85.5 E.04187
G1 X99.644 Y84.182 E.04238
G1 X100.238 Y82.457 E.0572
G1 X100.787 Y81.287 E.04052
G1 X101.494 Y80.082 E.0438
G1 X101.758 Y79.73 E.0138
M204 S1000
G1 X101.758 Y79.73 F10800
G1 X102.058 Y79.956
M204 S800
G1 F1200
G1 X102.924 Y78.803 E.04521
G1 X103.749 Y77.919 E.03791
G1 X104.72 Y77.048 E.0409
G1 X105.775 Y76.264 E.04121
G1 X106.936 Y75.56 E.04257
G1 X108.608 Y74.787 E.05776
G1 X109.757 Y74.4 E.03801
G1 X110.937 Y74.111 E.03809
G1 X112.242 Y73.912 E.04139
G1 X113.468 Y73.837 E.03851
G1 X114.702 Y73.868 E.0387
G1 X116.65 Y74.136 E.06165
G1 X117.902 Y74.459 E.04054
G1 X119.104 Y74.887 E.04001
G1 X120.278 Y75.429 E.04054
G1 X121.871 Y76.391 E.05835
G1 X122.858 Y77.145 E.03894
G1 X123.784 Y77.99 E.03931
G1 X124.652 Y78.938 E.0403
G1 X125.468 Y80.013 E.04232
G1 X126.156 Y81.123 E.04095
G1 X126.743 Y82.276 E.04057
G1 X127.14 Y81.423 E.0295
G1 X127.821 Y80.267 E.04207
G1 X128.912 Y78.814 E.05697
G1 X129.771 Y77.896 E.03942
G1 X130.732 Y77.037 E.04041
G1 X131.793 Y76.251 E.0414
G1 X132.963 Y75.545 E.04285
G1 X133.92 Y75.074 E.03344
G1 X135.737 Y74.405 E.06071
G1 X136.986 Y74.101 E.0403
G1 X138.26 Y73.91 E.04039
G1 X139.505 Y73.836 E.0391
G1 X141.59 Y73.957 E.06548
G1 X143.834 Y74.439 E.07196
G1 X145.07 Y74.874 E.04108
G1 X146.277 Y75.429 E.04165
G1 X147.83 Y76.363 E.05682
G1 X148.882 Y77.166 E.0415
G1 X149.793 Y78.002 E.03877
G1 X150.628 Y78.911 E.0387
G1 X151.486 Y80.043 E.04454
G1 X152.155 Y81.123 E.03983
G1 X152.96 Y82.814 E.05872
G1 X153.341 Y83.9 E.03609
G1 X153.676 Y85.217 E.04261
G1 X153.928 Y87.045 E.05786
G1 X153.963 Y88.303 E.03946
G1 X153.884 Y89.589 E.0404
G1 X153.68 Y90.906 E.04179
G1 X153.361 Y92.172 E.04094
G1 X152.71 Y93.915 E.05834
G1 X152.167 Y94.996 E.03793
G1 X151.49 Y96.091 E.04036
G1 X150.701 Y97.14 E.04116
G1 X149.809 Y98.123 E.04162
G1 X148.872 Y98.983 E.03988
G1 X147.721 Y99.861 E.04539
G1 X148.902 Y100.087 E.0377
G1 X149.868 Y100.51 E.03306
G1 X150.573 Y101.041 E.02767
G1 X151.206 Y101.757 E.02997
G1 X151.808 Y102.935 E.04148
G1 X152.183 Y104.057 E.03709
M73 P1 R57
M73 Q1 S58
G1 X152.396 Y105.159 E.03519
G1 X152.465 Y106.281 E.03525
G1 X152.39 Y107.404 E.03529
G1 X152.17 Y108.51 E.03536
G1 X151.781 Y109.647 E.03768
G1 X151.246 Y110.698 E.03698
G1 X150.604 Y111.447 E.03093
G1 X149.809 Y112.041 E.03112
G1 X148.876 Y112.436 E.03177
G1 X147.787 Y112.635 E.03471
G1 X146.645 Y112.542 E.03593
G1 X146.033 Y112.352 E.02009
G1 X144.787 Y112.707 E.04062
G1 X143.877 Y112.793 E.02866
G1 X142.566 Y112.69 E.04123
G1 X141.397 Y112.352 E.03815
G1 X140.855 Y112.533 E.01792
G1 X139.568 Y112.628 E.04046
G1 X138.454 Y112.399 E.03566
G1 X137.524 Y111.962 E.03222
G1 X136.833 Y111.428 E.02738
G1 X136.442 Y110.986 E.0185
G1 X135.63 Y112.437 E.05213
G1 X134.966 Y113.321 E.03467
G1 X134.223 Y114.123 E.03428
G1 X132.773 Y115.308 E.05871
G1 X131.751 Y115.926 E.03745
G1 X132.734 Y116.534 E.03624
G1 X133.641 Y117.218 E.03562
G1 X134.482 Y118.006 E.03614
G1 X135.21 Y118.851 E.03497
G1 X136.245 Y120.464 E.06009
G1 X136.708 Y121.474 E.03484
G1 X137.068 Y122.543 E.03537
G1 X137.317 Y123.662 E.03594
G1 X137.446 Y124.801 E.03594
G1 X137.455 Y125.868 E.03346
G1 X137.18 Y127.887 E.06389
G1 X136.864 Y128.971 E.0354
G1 X136.464 Y129.957 E.03336
G1 X135.514 Y131.602 E.05956
G1 X134.824 Y132.484 E.03511
G1 X134.059 Y133.276 E.03453
G1 X133.21 Y133.991 E.0348
G1 X131.451 Y135.073 E.06475
G1 X130.613 Y135.441 E.0287
G1 X129.432 Y135.822 E.03891
G1 X128.336 Y136.047 E.03508
G1 X126.424 Y136.164 E.06006
G1 X125.373 Y136.083 E.03305
G1 X124.194 Y135.865 E.03759
G1 X122.368 Y135.243 E.06048
G1 X121.387 Y134.746 E.03448
G1 X119.768 Y133.606 E.06208
G1 X118.989 Y132.873 E.03354
G1 X118.271 Y132.046 E.03434
G1 X117.204 Y130.385 E.0619
G1 X116.741 Y129.372 E.03492
G1 X116.383 Y128.303 E.03535
G1 X116.142 Y127.222 E.03473
G1 X116.013 Y126.103 E.03532
G1 X116.077 Y124.093 E.06305
G1 X116.277 Y122.977 E.03555
G1 X116.593 Y121.891 E.03546
G1 X117.022 Y120.843 E.03551
G1 X117.967 Y119.226 E.05872
G1 X118.653 Y118.357 E.03471
G1 X119.423 Y117.565 E.03463
G1 X120.244 Y116.876 E.03361
G1 X121.745 Y115.944 E.0554
G1 X120.063 Y114.849 E.06293
G1 X119.199 Y114.085 E.03616
G1 X118.431 Y113.245 E.03569
G1 X117.603 Y112.116 E.0439
G1 X116.891 Y113.454 E.04752
G1 X116.046 Y114.382 E.03935
G1 X114.987 Y115.036 E.03903
G1 X113.893 Y115.347 E.03566
G1 X112.818 Y115.388 E.03373
G1 X111.739 Y115.154 E.03462
G1 X110.446 Y114.458 E.04604
G1 X109.785 Y114.754 E.02271
G1 X108.711 Y115.047 E.03491
G1 X107.487 Y115.183 E.03861
G1 X106.442 Y115.14 E.03279
G1 X105.418 Y114.954 E.03263
G1 X104.101 Y114.476 E.04393
G1 X102.969 Y115.091 E.04039
G1 X101.53 Y115.401 E.04615
G1 X100.423 Y115.306 E.03484
G1 X99.31 Y114.922 E.03692
G1 X98.547 Y114.419 E.02865
G1 X97.85 Y113.727 E.0308
G1 X97.312 Y112.849 E.03229
G1 X96.873 Y111.907 E.03259
G1 X96.359 Y110.329 E.05204
G1 X96.125 Y109.069 E.04018
G1 X96.039 Y107.355 E.05381
G1 X96.121 Y106.262 E.03437
M73 Q1 S57
G1 X96.514 Y104.406 E.05948
G1 X97.135 Y102.803 E.0539
G1 X97.662 Y101.835 E.03456
G1 X98.395 Y101.002 E.03479
G1 X99.475 Y100.3 E.04039
G1 X100.728 Y99.936 E.04091
G1 X102.247 Y99.989 E.04766
G1 X103.229 Y100.322 E.03251
G1 X104.108 Y100.823 E.03172
G1 X105.35 Y100.363 E.04153
G1 X106.22 Y100.194 E.02779
G1 X104.802 Y99.158 E.05506
G1 X103.821 Y98.291 E.04105
G1 X102.944 Y97.362 E.04006
G1 X101.866 Y95.938 E.056
G1 X101.202 Y94.83 E.0405
G1 X100.641 Y93.668 E.04046
G1 X100.188 Y92.459 E.04048
G1 X99.844 Y91.206 E.04074
G1 X99.558 Y89.411 E.05699
G1 X99.495 Y88.135 E.04006
