; generated by PrusaSlicer 2.8.1+MacOS-arm64 on 2025-09-11 at 10:55:30 UTC


;
;
; 

; external perimeters extrusion width = 0.45mm
; perimeters extrusion width = 0.45mm
; infill extrusion width = 0.45mm
; solid infill extrusion width = 0.45mm
; top infill extrusion width = 0.40mm
; support material extrusion width = 0.35mm
; first layer extrusion width = 0.42mm

; external perimeters extrusion width = 0.45mm
; perimeters extrusion width = 0.45mm
; infill extrusion width = 0.45mm
; solid infill extrusion width = 0.45mm
; top infill extrusion width = 0.40mm
; support material extrusion width = 0.35mm
; first layer extrusion width = 0.42mm

; external perimeters extrusion width = 0.45mm
; perimeters extrusion width = 0.45mm
; infill extrusion width = 0.45mm
; solid infill extrusion width = 0.45mm
; top infill extrusion width = 0.40mm
; support material extrusion width = 0.35mm
; first layer extrusion width = 0.42mm

; external perimeters extrusion width = 0.45mm
; perimeters extrusion width = 0.45mm
; infill extrusion width = 0.45mm
; solid infill extrusion width = 0.45mm
; top infill extrusion width = 0.40mm
; support material extrusion width = 0.35mm
; first layer extrusion width = 0.42mm

; external perimeters extrusion width = 0.45mm
; perimeters extrusion width = 0.45mm
; infill extrusion width = 0.45mm
; solid infill extrusion width = 0.45mm
; top infill extrusion width = 0.40mm
; support material extrusion width = 0.35mm
; first layer extrusion width = 0.42mm

; external perimeters extrusion width = 0.45mm
; perimeters extrusion width = 0.45mm
; infill extrusion width = 0.45mm
; solid infill extrusion width = 0.45mm
; top infill extrusion width = 0.40mm
; support material extrusion width = 0.35mm
; first layer extrusion width = 0.42mm

M73 P0 R58
M73 Q0 S58
M201 X1000 Y1000 Z200 E5000 ; sets maximum accelerations, mm/sec^2
M203 X200 Y200 Z12 E120 ; sets maximum feedrates, mm / sec
M204 S1250 T1250 ; sets acceleration (S) and retract acceleration (R), mm/sec^2
M205 X8.00 Y8.00 Z0.40 E4.50 ; sets the jerk limits, mm/sec
M205 S0 T0 ; sets the minimum extruding and travel feed rate, mm/sec

; printing object zfish-mold-stamp-D20 id:1 copy 0
; stop printing object zfish-mold-stamp-D20 id:1 copy 0
; printing object zfish-mold-stamp-D13 id:0 copy 0
; stop printing object zfish-mold-stamp-D13 id:0 copy 0
; printing object zfish-mold-stem-D13 id:2 copy 0
; stop printing object zfish-mold-stem-D13 id:2 copy 0
; printing object zfish-mold-stem-D20 id:3 copy 0
; stop printing object zfish-mold-stem-D20 id:3 copy 0
; printing object zfish-mold-stemlock-D13 id:4 copy 0
; stop printing object zfish-mold-stemlock-D13 id:4 copy 0
; printing object zfish-mold-stemlock-D20 id:5 copy 0
; stop printing object zfish-mold-stemlock-D20 id:5 copy 0

;TYPE:Custom
M862.3 P "MK3S" ; printer model check
M862.1 P0.4 ; nozzle diameter check
M115 U3.14.0 ; tell printer latest fw version
G90 ; use absolute coordinates
M83 ; extruder relative mode
M104 S215 ; set extruder temp
M140 S60 ; set bed temp
M190 S60 ; wait for bed temp
M109 S215 ; wait for extruder temp
G28 W ; home all without mesh bed level
G80 X92.9958 Y70.7935 W64.0084 H68.4144 ; mesh bed levelling

G1 Z0.2 F720
G1 Y-3 F1000 ; go outside print area
G92 E0
G1 X60 E9 F1000 ; intro line
G1 X100 E12.5 F1000 ; intro line

G92 E0
M221 S95

; Don't change E values below. Excessive value can damage the printer.

G21 ; set units to millimeters
G90 ; use absolute coordinates
M83 ; use relative distances for extrusion

M900 K0.05 ; Filament gcode LA 1.5
M900 K30 ; Filament gcode LA 1.0




M107
;LAYER_CHANGE
;Z:0.2
;HEIGHT:0.2
G1 E-.8 F2100
G1 Z.6 F720
G1 X96.48 Y93.049 F10800
G1 Z.2 F720
M73 P0 R57
G1 E.8 F2100
M204 S800
;TYPE:Skirt/Brim
;WIDTH:0.42
G1 F1200
G1 X117.904 Y74.238 E.89392
G1 X119.725 Y72.926 E.07037
G1 X120.866 Y72.311 E.04064
G1 X122.194 Y71.761 E.04507
G1 X124.423 Y71.179 E.07223
G1 X125.854 Y71.01 E.04518
G1 X128.154 Y71.056 E.07213
G1 X129.573 Y71.283 E.04506
G1 X130.552 Y71.531 E.03167
G1 X131.908 Y72.007 E.04506
G1 X133.956 Y73.063 E.07225
G1 X135.131 Y73.89 E.04505
G1 X136.154 Y74.781 E.04254
G1 X137.301 Y76.033 E.05324
G1 X152.971 Y96.387 E.80541
G1 X154.514 Y99.466 E.10798
G1 X154.95 Y100.807 E.04421
G1 X155.237 Y102.329 E.04856
G1 X156.811 Y121.445 E.6014
G1 X156.718 Y123.774 E.07308
G1 X156.294 Y126.133 E.07515
G1 X155.628 Y128.197 E.068
G1 X154.651 Y130.26 E.07157
G1 X153.407 Y132.175 E.0716
G1 X151.92 Y133.907 E.07157
G1 X150.215 Y135.425 E.07158
G1 X148.327 Y136.7 E.07143
G1 X146.278 Y137.715 E.0717
G1 X144.115 Y138.447 E.0716
G1 X141.875 Y138.885 E.07156
G1 X139.62 Y139.019 E.07083
G1 X113.484 Y139.018 E.81948
G1 X111.37 Y138.855 E.06648
G1 X109.667 Y138.529 E.05437
G1 X107.688 Y137.915 E.06497
G1 X106.1 Y137.221 E.05434
G1 X104.265 Y136.158 E.06649
G1 X102.501 Y134.811 E.06959
G1 X101.244 Y133.596 E.05481
G1 X99.895 Y131.96 E.06649
G1 X98.705 Y130.069 E.07005
G1 X97.959 Y128.508 E.05425
G1 X97.436 Y127.075 E.04783
G1 X96.933 Y125.065 E.06497
G1 X93.313 Y104.267 E.66191
G1 X93.188 Y102.777 E.04688
G1 X93.215 Y101.393 E.0434
G1 X93.582 Y99.021 E.07526
G1 X93.974 Y97.694 E.04338
G1 X94.543 Y96.31 E.04692
G1 X96.016 Y93.623 E.09608
G1 X96.443 Y93.096 E.02127
M204 S1000
;WIPE_START
G1 F8640
G1 X96.48 Y93.049 E-.01381
G1 X99.039 Y90.802 E-.78619
;WIPE_END
G1 Z.6 F720
G1 X98.176 Y95.394 F10800
G1 Z.2 F720
G1 E.8 F2100
M204 S800
G1 F1200
G1 X99.287 Y94.673 E.04153
G1 X100.574 Y94.278 E.04221
G1 X102.337 Y94.324 E.0553
G1 X103.366 Y94.672 E.03406
G1 X104.127 Y95.101 E.02739
G1 X105.207 Y94.712 E.03599
G1 X106.249 Y94.505 E.03331
G1 X107.226 Y94.439 E.0307
G1 X108.946 Y94.619 E.05422
G1 X110.43 Y95.111 E.04902
G1 X111.559 Y94.51 E.0401
G1 X112.632 Y94.256 E.03457
G1 X113.82 Y94.257 E.03725
G1 X114.797 Y94.493 E.03151
G1 X115.723 Y94.919 E.03196
G1 X117.141 Y96.243 E.06083
G1 X117.646 Y97.164 E.03293
G1 X118.367 Y96.252 E.03645
G1 X119.164 Y95.432 E.03585
G1 X120.012 Y94.719 E.03474
G1 X120.94 Y94.072 E.03547
G1 X119.804 Y93.262 E.04375
G1 X118.926 Y92.484 E.03678
G1 X118.158 Y91.644 E.03569
G1 X117.019 Y89.973 E.06341
G1 X116.503 Y88.921 E.03674
G1 X116.109 Y87.843 E.03599
G1 X115.82 Y86.692 E.03721
G1 X115.658 Y85.537 E.03657
G1 X115.618 Y84.38 E.0363
G1 X115.849 Y82.302 E.06556
G1 X116.134 Y81.217 E.03517
G1 X116.526 Y80.166 E.03517
G1 X117.492 Y78.392 E.06333
G1 X118.224 Y77.417 E.03823
G1 X119.022 Y76.564 E.03662
G1 X119.87 Y75.826 E.03525
G1 X120.79 Y75.177 E.0353
G1 X122.519 Y74.284 E.06102
G1 X123.675 Y73.885 E.03834
G1 X124.837 Y73.619 E.03738
G1 X125.927 Y73.487 E.03443
G1 X128.029 Y73.533 E.06592
G1 X129.117 Y73.716 E.03459
G1 X130.293 Y74.044 E.03828
G1 X131.302 Y74.442 E.03401
G1 X133.123 Y75.481 E.06574
G1 X134.016 Y76.18 E.03556
G1 X135.428 Y77.655 E.06402
G1 X136.074 Y78.555 E.03474
G1 X136.64 Y79.543 E.0357
G1 X137.109 Y80.601 E.03629
G1 X137.666 Y82.601 E.0651
G1 X137.804 Y83.644 E.03299
G1 X137.789 Y85.646 E.06277
G1 X137.616 Y86.8 E.03659
G1 X137.318 Y87.943 E.03704
G1 X136.932 Y88.975 E.03455
G1 X135.935 Y90.794 E.06504
G1 X135.26 Y91.692 E.03522
G1 X133.898 Y93.06 E.06053
G1 X132.477 Y94.065 E.05457
G1 X133.864 Y95.045 E.05325
G1 X134.764 Y95.887 E.03864
G1 X135.494 Y96.732 E.03501
G1 X136.516 Y98.305 E.05882
G1 X137.51 Y97.574 E.03869
G1 X138.423 Y97.186 E.0311
G1 X139.416 Y96.974 E.03184
G1 X140.821 Y97.045 E.04411
G1 X141.398 Y97.212 E.01883
G1 X142.481 Y96.911 E.03524
G1 X143.347 Y96.809 E.02734
G1 X144.221 Y96.814 E.0274
G1 X145.529 Y97.036 E.0416
G1 X146.035 Y97.212 E.0168
G1 X146.685 Y97.036 E.02111
G1 X147.874 Y96.96 E.03736
G1 X149.033 Y97.185 E.03702
G1 X150.076 Y97.646 E.03575
G1 X150.843 Y98.227 E.03017
G1 X151.477 Y98.935 E.0298
G1 X152.113 Y100.136 E.04261
G1 X152.527 Y101.324 E.03945
G1 X152.755 Y102.439 E.03568
G1 X152.843 Y103.574 E.03569
G1 X152.787 Y104.734 E.03641
G1 X152.583 Y105.878 E.03644
G1 X152.225 Y107.014 E.03735
G1 X151.69 Y108.149 E.03934
G1 X151.061 Y108.964 E.03228
G1 X150.261 Y109.63 E.03264
G1 X149.306 Y110.113 E.03356
G1 X148.551 Y110.297 E.02437
G1 X150.067 Y111.602 E.06272
G1 X150.957 Y112.578 E.04141
G1 X151.773 Y113.654 E.04234
G1 X152.488 Y114.806 E.04251
G1 X152.999 Y115.811 E.03535
G1 X153.715 Y117.692 E.06311
G1 X154.186 Y119.801 E.06776
G1 X154.341 Y122.18 E.07475
G1 X154.258 Y123.5 E.04147
G1 X154.055 Y124.816 E.04175
G1 X153.726 Y126.133 E.04256
G1 X153.045 Y127.952 E.0609
G1 X152.485 Y129.063 E.03901
G1 X151.828 Y130.128 E.03924
G1 X150.979 Y131.258 E.04432
G1 X150.126 Y132.201 E.03987
G1 X149.182 Y133.075 E.04034
G1 X147.698 Y134.181 E.05803
G1 X146.505 Y134.879 E.04334
G1 X145.353 Y135.419 E.03989
G1 X144.142 Y135.863 E.04044
G1 X142.77 Y136.225 E.04449
G1 X140.967 Y136.492 E.05715
G1 X139.68 Y136.544 E.04039
G1 X138.342 Y136.478 E.042
G1 X137.008 Y136.289 E.04224
G1 X135.682 Y135.973 E.04274
G1 X133.747 Y135.263 E.06463
G1 X132.778 Y134.785 E.03388
G1 X131.625 Y134.091 E.0422
G1 X130.571 Y133.319 E.04096
G1 X129.577 Y132.441 E.04158
G1 X128.175 Y130.877 E.06586
G1 X127.546 Y130 E.03384
G1 X126.729 Y128.64 E.04974
G1 X125.809 Y130.158 E.05565
G1 X125 Y131.235 E.04223
G1 X124.097 Y132.231 E.04215
G1 X123.123 Y133.127 E.0415
G1 X122.086 Y133.921 E.04095
G1 X120.994 Y134.612 E.04052
G1 X119.304 Y135.441 E.05902
G1 X118.055 Y135.89 E.04162
G1 X116.77 Y136.226 E.04164
G1 X114.969 Y136.492 E.05708
G1 X113.646 Y136.544 E.04151
G1 X112.309 Y136.475 E.04198
G1 X110.993 Y136.286 E.04169
G1 X109.697 Y135.977 E.04177
G1 X107.938 Y135.347 E.05858
G1 X106.758 Y134.773 E.04114
G1 X105.623 Y134.088 E.04157
G1 X103.945 Y132.783 E.06665
G1 X102.31 Y131.047 E.07477
G1 X101.532 Y129.976 E.04151
G1 X100.843 Y128.819 E.04222
G1 X100.271 Y127.621 E.04162
G1 X99.814 Y126.386 E.04129
G1 X99.346 Y124.503 E.06084
G1 X99.181 Y123.288 E.03845
G1 X99.118 Y122.007 E.04021
G1 X99.17 Y120.702 E.04095
G1 X99.341 Y119.394 E.04136
G1 X99.859 Y117.338 E.06648
G1 X100.788 Y115.146 E.07465
G1 X101.94 Y113.3 E.06823
G1 X103.505 Y111.493 E.07495
G1 X104.504 Y110.599 E.04203
G1 X105.296 Y110.019 E.03078
G1 X104.102 Y109.61 E.03957
G1 X103.131 Y110.134 E.0346
G1 X101.578 Y110.478 E.04987
G1 X100.412 Y110.391 E.03666
G1 X99.136 Y109.959 E.04224
G1 X98.364 Y109.459 E.02884
G1 X97.572 Y108.685 E.03472
G1 X96.984 Y107.738 E.03495
G1 X96.497 Y106.688 E.03629
G1 X95.984 Y105.088 E.05268
G1 X95.756 Y103.864 E.03904
G1 X95.661 Y102.054 E.05683
G1 X95.748 Y100.907 E.03607
G1 X96.137 Y99.05 E.05949
G1 X96.772 Y97.387 E.05581
G1 X97.29 Y96.41 E.03467
G1 X98.136 Y95.439 E.04038
M204 S1000
G1 X98.136 Y95.439 F10800
G1 X98.419 Y95.688
M204 S800
G1 F1200
G1 X98.441 Y95.663 E.00104
G1 X99.469 Y95.004 E.03829
G1 X100.597 Y94.656 E.03701
G1 X102.244 Y94.69 E.05165
G1 X103.228 Y95.023 E.03257
G1 X104.106 Y95.523 E.03168
G1 X105.292 Y95.079 E.03971
G1 X106.311 Y94.877 E.03257
G1 X107.219 Y94.816 E.02853
G1 X108.875 Y94.989 E.05221
G1 X109.775 Y95.244 E.02933
G1 X110.449 Y95.529 E.02294
G1 X111.672 Y94.871 E.04354
G1 X112.656 Y94.633 E.03174
G1 X113.755 Y94.629 E.03446
G1 X114.66 Y94.844 E.02917
G1 X115.489 Y95.217 E.0285
G1 X116.86 Y96.497 E.05881
G1 X117.618 Y97.921 E.05058
G1 X118.645 Y96.508 E.05477
G1 X119.427 Y95.701 E.03523
G1 X120.248 Y95.013 E.03359
G1 X121.737 Y94.075 E.05518
G1 X120.046 Y92.973 E.06329
G1 X119.184 Y92.208 E.03614
G1 X118.455 Y91.411 E.03387
G1 X117.353 Y89.799 E.06122
G1 X116.854 Y88.782 E.03552
G1 X116.472 Y87.741 E.03477
G1 X116.192 Y86.63 E.03592
G1 X116.034 Y85.513 E.03537
G1 X115.995 Y84.393 E.03514
G1 X116.217 Y82.388 E.06325
G1 X116.49 Y81.34 E.03396
G1 X116.876 Y80.306 E.03461
G1 X117.809 Y78.597 E.06105
G1 X118.507 Y77.666 E.03648
G1 X119.277 Y76.842 E.03536
G1 X120.11 Y76.117 E.03463
G1 X120.999 Y75.491 E.03409
G1 X122.667 Y74.632 E.05883
G1 X123.769 Y74.25 E.03657
G1 X124.893 Y73.992 E.03616
G1 X126.929 Y73.837 E.06402
G1 X127.994 Y73.909 E.03347
G1 X129.044 Y74.086 E.03339
G1 X130.182 Y74.404 E.03705
G1 X131.978 Y75.206 E.06167
G1 X132.914 Y75.795 E.03467
G1 X133.762 Y76.459 E.03377
G1 X134.513 Y77.177 E.03258
G1 X135.752 Y78.751 E.06281
G1 X136.308 Y79.722 E.03508
G1 X136.761 Y80.745 E.03508
G1 X137.095 Y81.78 E.0341
G1 X137.427 Y83.666 E.06004
G1 X137.415 Y85.599 E.06061
G1 X137.245 Y86.734 E.03598
G1 X136.961 Y87.82 E.0352
G1 X136.582 Y88.834 E.03394
G1 X135.628 Y90.574 E.06222
G1 X134.964 Y91.458 E.03467
G1 X133.652 Y92.775 E.05829
G1 X132.789 Y93.432 E.03401
G1 X131.754 Y94.062 E.03799
G1 X132.738 Y94.67 E.03627
M73 Q1 S58
G1 X133.629 Y95.34 E.03495
M73 P1 R57
G1 X134.485 Y96.142 E.03678
G1 X135.191 Y96.957 E.03381
G1 X135.799 Y97.82 E.0331
G1 X136.434 Y99.001 E.04204
G1 X136.855 Y98.523 E.01997
G1 X137.679 Y97.911 E.03218
G1 X138.52 Y97.55 E.0287
G1 X139.47 Y97.348 E.03045
G1 X140.777 Y97.42 E.04104
G1 X141.394 Y97.604 E.02019
G1 X142.54 Y97.284 E.03731
G1 X143.379 Y97.185 E.02649
G1 X144.203 Y97.19 E.02584
G1 X145.449 Y97.405 E.03964
G1 X146.021 Y97.608 E.01903
G1 X146.731 Y97.41 E.02311
G1 X147.829 Y97.335 E.03451
G1 X148.902 Y97.539 E.03425
G1 X149.867 Y97.96 E.03301
G1 X150.6 Y98.516 E.02885
G1 X151.179 Y99.167 E.02732
G1 X151.773 Y100.299 E.04008
G1 X152.16 Y101.413 E.03698
G1 X152.38 Y102.48 E.03416
G1 X152.467 Y103.591 E.03494
G1 X152.411 Y104.703 E.03491
G1 X152.214 Y105.8 E.03495
G1 X151.869 Y106.887 E.03576
G1 X151.358 Y107.97 E.03755
G1 X150.803 Y108.689 E.02848
G1 X150.071 Y109.303 E.02996
G1 X149.157 Y109.766 E.03212
G1 X147.676 Y110.106 E.04764
G1 X148.856 Y111.005 E.04651
G1 X149.794 Y111.863 E.03986
G1 X150.662 Y112.812 E.04032
G1 X151.457 Y113.86 E.04124
G1 X152.164 Y114.998 E.04201
G1 X152.951 Y116.651 E.0574
G1 X153.356 Y117.809 E.03846
G1 X153.683 Y119.107 E.04197
G1 X153.93 Y120.923 E.05746
G1 X153.964 Y122.182 E.03949
G1 X153.883 Y123.468 E.0404
G1 X153.684 Y124.75 E.04068
G1 X153.362 Y126.033 E.04148
G1 X152.705 Y127.788 E.05876
G1 X152.159 Y128.872 E.03806
G1 X151.511 Y129.923 E.03871
G1 X150.694 Y131.012 E.04269
G1 X149.852 Y131.942 E.03934
G1 X148.931 Y132.794 E.03934
G1 X147.488 Y133.868 E.0564
G1 X146.337 Y134.541 E.04181
G1 X145.201 Y135.074 E.03934
G1 X144.02 Y135.505 E.03942
G1 X142.68 Y135.859 E.04346
G1 X140.944 Y136.116 E.05502
G1 X139.689 Y136.167 E.03938
G1 X138.386 Y136.104 E.0409
G1 X137.087 Y135.92 E.04114
G1 X135.778 Y135.608 E.04219
G1 X134.61 Y135.215 E.03864
G1 X132.966 Y134.458 E.05675
G1 X131.841 Y133.782 E.04115
G1 X130.801 Y133.019 E.04044
G1 X129.833 Y132.164 E.0405
G1 X128.943 Y131.222 E.04063
G1 X127.865 Y129.8 E.05595
G1 X127.209 Y128.706 E.04
G1 X126.735 Y127.73 E.03402
G1 X126.177 Y128.843 E.03904
G1 X125.493 Y129.952 E.04085
G1 X124.704 Y131.001 E.04116
G1 X123.824 Y131.972 E.04109
G1 X122.874 Y132.843 E.04041
G1 X121.864 Y133.616 E.03988
G1 X119.83 Y134.794 E.0737
G1 X117.951 Y135.527 E.06324
G1 X116.682 Y135.859 E.04113
G1 X114.946 Y136.116 E.05502
G1 X113.657 Y136.167 E.04045
G1 X112.354 Y136.101 E.04091
G1 X111.056 Y135.914 E.04112
G1 X109.791 Y135.612 E.04078
G1 X108.081 Y134.998 E.05697
G1 X106.945 Y134.446 E.0396
G1 X105.839 Y133.779 E.0405
G1 X104.786 Y133.006 E.04096
G1 X103.428 Y131.755 E.05789
G1 X102.599 Y130.805 E.03953
G1 X101.851 Y129.775 E.03991
G1 X101.18 Y128.648 E.04113
G1 X100.615 Y127.466 E.04108
G1 X100.17 Y126.263 E.04022
G1 X99.719 Y124.446 E.0587
M73 Q1 S57
G1 X99.557 Y123.261 E.0375
G1 X99.495 Y122.013 E.03918
G1 X99.545 Y120.743 E.03985
G1 X99.713 Y119.451 E.04085
G1 X100.218 Y117.453 E.06462
G1 X101.126 Y115.315 E.07283
G1 X102.246 Y113.52 E.06634
G1 X103.774 Y111.756 E.07317
G1 X104.748 Y110.887 E.04093
G1 X106.229 Y109.805 E.05751
G1 X105.357 Y109.64 E.02783
G1 X104.104 Y109.178 E.04187
G1 X103.023 Y109.772 E.03867
G1 X101.525 Y110.103 E.0481
G1 X100.467 Y110.017 E.03328
G1 X99.32 Y109.629 E.03797
G1 X98.613 Y109.175 E.02634
G1 X97.853 Y108.432 E.03332
G1 X97.311 Y107.551 E.03243
G1 X96.849 Y106.552 E.03451
G1 X96.349 Y104.993 E.05133
G1 X96.128 Y103.803 E.03795
G1 X96.038 Y102.056 E.05485
G1 X96.123 Y100.945 E.03494
G1 X96.5 Y99.151 E.05748
G1 X97.115 Y97.544 E.05395
G1 X97.613 Y96.606 E.0333
G1 X98.38 Y95.733 E.03644
M204 S1000
G1 X98.38 Y95.733 F10800
G1 X98.662 Y95.983
M204 S800
G1 F1200
